images/thermometer.svg

<svg width="19" height="32" viewBox="0 0 19 32" fill="none" xmlns="http://www.w3.org/2000/svg">
<path d="M11.1889 5.06946C11.1889 3.72496 10.6972 2.43552 9.82206 1.48481C8.9469 0.534102 7.75991 0 6.52224 0C5.28457 0 4.09759 0.534102 3.22242 1.48481C2.34725 2.43552 1.85559 3.72496 1.85559 5.06946V19.8243C0.659223 21.1507 -0.00749471 22.936 6.35687e-05 24.793C-0.00314447 25.9823 0.265418 27.1538 0.781664 28.2026C1.29791 29.2514 2.0457 30.1445 2.95797 30.802C3.87024 31.4595 4.91847 31.8607 6.00864 31.9697C7.09882 32.0788 8.19686 31.8921 9.20429 31.4266C10.2117 30.9611 11.097 30.2312 11.7809 29.3025C12.4647 28.3737 12.9256 27.2751 13.1223 26.1052C13.319 24.9352 13.2453 23.7306 12.9079 22.5992C12.5704 21.4678 11.9798 20.4451 11.1889 19.6228V5.06946ZM11.3559 24.793C11.3653 25.6725 11.1676 26.5399 10.7815 27.3131C10.3955 28.0862 9.83398 28.7393 9.15026 29.2104C8.46655 29.6814 7.68334 29.9549 6.875 30.0047C6.06666 30.0544 5.26002 29.879 4.53166 29.4949C3.8033 29.1108 3.17741 28.5308 2.7134 27.8101C2.24939 27.0893 1.96267 26.2517 1.88046 25.3767C1.79825 24.5017 1.92328 23.6185 2.24368 22.8107C2.56408 22.003 3.06921 21.2976 3.71112 20.7616V5.06946C3.71112 4.25955 4.00729 3.48281 4.53448 2.91012C5.06166 2.33743 5.77669 2.01569 6.52224 2.01569C7.2678 2.01569 7.98282 2.33743 8.51001 2.91012C9.03719 3.48281 9.33337 4.25955 9.33337 5.06946V20.5701C9.95951 21.0441 10.4706 21.6758 10.8228 22.4113C11.1751 23.1467 11.358 23.964 11.3559 24.793Z" fill="#2D3440"/>
<path d="M7.5335 21.6384V5.14001C7.5335 4.87271 7.43576 4.61637 7.26177 4.42736C7.08778 4.23835 6.8518 4.13217 6.60574 4.13217C6.35968 4.13217 6.1237 4.23835 5.94971 4.42736C5.77572 4.61637 5.67798 4.87271 5.67798 5.14001V21.6384C5.05896 21.8762 4.53724 22.344 4.20503 22.9592C3.87282 23.5744 3.75151 24.2974 3.86253 25.0003C3.97356 25.7033 4.30978 26.341 4.81176 26.8007C5.31374 27.2605 5.94917 27.5126 6.60574 27.5126C7.26231 27.5126 7.89774 27.2605 8.39972 26.8007C8.9017 26.341 9.23792 25.7033 9.34895 25.0003C9.45997 24.2974 9.33866 23.5744 9.00645 22.9592C8.67424 22.344 8.15252 21.8762 7.5335 21.6384Z" fill="#2D3440"/>
<path d="M18.6667 3.94068H13.1001V5.95637H18.6667V3.94068Z" fill="#2D3440"/>
<path d="M18.6667 7.97206H13.1001V9.98775H18.6667V7.97206Z" fill="#2D3440"/>
<path d="M18.6667 12.0034H13.1001V14.0191H18.6667V12.0034Z" fill="#2D3440"/>
<path d="M18.6667 16.0348H13.1001V18.0505H18.6667V16.0348Z" fill="#2D3440"/>
</svg>

<svg xmlns="http://www.w::before 3.org/2000/svg" width="19" height="32" fill="none"><path fill="#2D3440" d="M11.189 5.07c0-1.345-.492-2.634-1.367-3.585C8.947.535 7.76 0 6.522 0c-1.237 0-2.424.534-3.3 1.485-.875.95-1.366 2.24-1.366 3.584v14.755C.659 21.151-.007 22.936 0 24.793a7.686 7.686 0 0 0 .782 3.41 7.008 7.008 0 0 0 2.176 2.599 6.284 6.284 0 0 0 3.05 1.168 6.144 6.144 0 0 0 3.196-.543 6.705 6.705 0 0 0 2.577-2.125 7.489 7.489 0 0 0 1.341-3.197 7.781 7.781 0 0 0-.214-3.506 7.298 7.298 0 0 0-1.72-2.976V5.069Zm.167 19.723c.01.88-.188 1.747-.575 2.52a5.017 5.017 0 0 1-1.63 1.897 4.494 4.494 0 0 1-2.276.795 4.43 4.43 0 0 1-2.343-.51 4.881 4.881 0 0 1-1.819-1.685 5.44 5.44 0 0 1-.833-2.433 5.563 5.563 0 0 1 .364-2.566 5.125 5.125 0 0 1 1.467-2.05V5.07c0-.81.296-1.586.823-2.159a2.703 2.703 0 0 1 1.988-.894c.746 0 1.46.321 1.988.894.527.573.823 1.35.823 2.16v15.5a5.023 5.023 0 0 1 1.49 1.841 5.49 5.49 0 0 1 .533 2.382Z"/><path fill="#2D3440" d="M7.534 21.638V5.14c0-.267-.098-.524-.272-.713a.892.892 0 0 0-.656-.295.892.892 0 0 0-.656.295 1.054 1.054 0 0 0-.272.713v16.498a2.85 2.85 0 0 0-1.473 1.321A3.246 3.246 0 0 0 3.863 25c.11.703.447 1.341.949 1.8.502.46 1.137.713 1.794.713.656 0 1.292-.253 1.794-.712.502-.46.838-1.098.949-1.8a3.246 3.246 0 0 0-.343-2.042 2.85 2.85 0 0 0-1.473-1.32ZM18.667 3.94H13.1v2.016h5.567V3.941ZM18.667 7.972H13.1v2.016h5.567V7.972ZM18.667 12.003H13.1v2.016h5.567v-2.016ZM18.667 16.035H13.1v2.015h5.567v-2.015Z"/></svg>
